Newaita-dark/actions/32/mail-meeting-request-reply.svg

<?xml version="1.0" encoding="UTF-8"?>
<svg xmlns="http://www.w3.org/2000/svg" xmlns:xlink="http://www.w3.org/1999/xlink" width="32pt" height="32pt" viewBox="0 0 32 32" version="1.1">
<g id="surface1">
<path style=" stroke:none;fill-rule:nonzero;fill:rgb(74.117649%,74.117649%,74.117649%);fill-opacity:1;" d="M 3.96875 4.21875 C 2.503906 4.21875 1.324219 5.398438 1.324219 6.863281 L 1.324219 26.050781 C 1.324219 27.515625 2.503906 28.695312 3.96875 28.695312 L 19.183594 28.695312 L 19.183594 26.710938 L 4.628906 26.710938 C 3.898438 26.710938 3.308594 26.121094 3.308594 25.386719 L 3.308594 7.738281 L 15.113281 18.300781 C 15.546875 18.6875 16.203125 18.6875 16.636719 18.300781 L 28.445312 7.738281 L 28.445312 17.449219 L 30.429688 17.449219 L 30.429688 6.863281 C 30.429688 5.398438 29.25 4.21875 27.785156 4.21875 Z M 5.019531 6.203125 L 26.730469 6.203125 L 15.875 15.917969 Z M 5.019531 6.203125 "/>
<path style=" stroke:none;fill-rule:nonzero;fill:rgb(100%,43.921569%,26.274511%);fill-opacity:1;" d="M 25.109375 18.109375 L 25.164062 18.109375 C 25.878906 18.109375 26.460938 18.703125 26.460938 19.433594 L 26.460938 23.402344 C 26.460938 24.132812 25.878906 24.726562 25.164062 24.726562 L 25.109375 24.726562 C 24.394531 24.726562 23.816406 24.132812 23.816406 23.402344 L 23.816406 19.433594 C 23.816406 18.703125 24.394531 18.109375 25.109375 18.109375 Z M 25.109375 18.109375 "/>
<path style=" stroke:none;fill-rule:nonzero;fill:rgb(100%,43.921569%,26.274511%);fill-opacity:1;" d="M 25.136719 26.050781 C 25.867188 26.050781 26.460938 26.640625 26.460938 27.371094 C 26.460938 28.101562 25.867188 28.695312 25.136719 28.695312 C 24.40625 28.695312 23.816406 28.101562 23.816406 27.371094 C 23.816406 26.640625 24.40625 26.050781 25.136719 26.050781 Z M 25.136719 26.050781 "/>
</g>
</svg>

<svg xmlns="http://www.w3.org/2000/svg" width="32pt" height="32pt" viewBox="0 0 32 32"><path d="M3.969 4.219a2.639 2.639 0 0 0-2.645 2.644v19.188a2.639 2.639 0 0 0 2.645 2.644h15.215v-1.984H4.629c-.73 0-1.32-.59-1.32-1.324V7.738l11.804 10.563c.434.387 1.09.387 1.524 0L28.445 7.738v9.711h1.985V6.863a2.639 2.639 0 0 0-2.645-2.644zm1.05 1.984H26.73l-10.855 9.715zm0 0" fill="#bdbdbd"/><path d="M25.11 18.11h.054c.715 0 1.297.593 1.297 1.324v3.968c0 .73-.582 1.325-1.297 1.325h-.055c-.714 0-1.293-.594-1.293-1.325v-3.968c0-.73.579-1.325 1.293-1.325zm0 0M25.137 26.05a1.322 1.322 0 1 1 .004 2.645 1.322 1.322 0 0 1-.004-2.644zm0 0" fill="#ff7043"/></svg>
